X: 20761
Q: "With spirit, but not too fast."
M: 6/8
L: 1/8
K: G
d>cB c>BA | GAG G2 ||
b/a/ |\
g2d e>dB | ded d2b/a/ |\
g2d e>dB | A>BA A2b/a/ |\
g2d e>dB | d>ef g>fe |\
d>cB c>BA | GAG G2 |]


